!!!OTL: WELLE GROSS WUNDER SCHAUEN WILL
!!!ARE: Europa, Mitteleuropa, Schweiz
!!!SCT: Z0083
!!!YEM: Copyright 1995, estate of Helmut Schaffrath.
**kern
*ICvox
*Ivox
*M3/4
*k[]
*C:
{8G
=1
8c
8B
4.c
8d
=2
8B
8F#
4.G}
{8B
=3
8f
8g
8f
8e
4c
=4
4.c
4d}
{8G
=5
8c
8B
4.c
8d
=6
8B
8F#
4.G}
{8B
=7
8f
8g
8f
8e
4c
=8
4.c
4d}
{8c
=9
8e
8f
4.g
8c
=10
8d
8e
4.f}
{8c
=11
8e
8c
4d
4c
=12
4.B
4c}
==
!!!AGN: Sagen - Lied, Romanze
!!!ONB: ESAC (Essen Associative Code) Database: ZUCCAL
!!!AMT: simple triple
!!!AIN: vox
!!!EED: Helmut Schaffrath
!!!EEV: 1.0
*-
